16x16/panel/camera-ready.svg

<svg xmlns="http://www.w3.org/2000/svg" width="16" height="16" version="1.1">
 <defs>
  <style id="current-color-scheme" type="text/css">
   .ColorScheme-Text { color:#323a41; } .ColorScheme-Highlight { color:#4285f4; } .ColorScheme-NeutralText { color:#ff9800; } .ColorScheme-PositiveText { color:#4caf50; } .ColorScheme-NegativeText { color:#f44336; }
  </style>
 </defs>
 <path style="fill:currentColor" class="ColorScheme-Text" d="M 8,1 C 4.6863,1 2,3.6863 2,7 2,9.087 3.0708,10.925 4.6875,12 H 4 C 2,12 2,14 2,14 V 15 H 14 V 14 C 14,14 14,12 12,12 H 11.313 C 12.93,10.925 14,9.087 14,7 14,3.6863 11.314,1 8,1 Z M 8,5.0039 A 2,2 0 0 1 10,7.004 2,2 0 0 1 8,9.004 2,2 0 0 1 6,7.004 2,2 0 0 1 8,5.0039 Z"/>
</svg>

<svg xmlns="http://www.w3.org/2000/svg" width="16" height="16"><defs><style id="current-color-scheme" type="text/css"></style></defs><path d="M8 1a6 6 0 1 0-3.313 11H4c-2 0-2 2-2 2v1h12v-1s0-2-2-2h-.687A5.998 5.998 0 0 0 8 1zm0 4.004a2 2 0 0 1 2 2 2 2 0 0 1-2 2 2 2 0 0 1-2-2 2 2 0 0 1 2-2z" opacity=".3" fill="currentColor" color="#d3dae3"/></svg>
